!! 00000] TT[00
!! NN
!!!OTL: Fan Dui hua
!!!ARE: Asia, China,ÿHebei, Jinxian
!! Ethnic Group: Han
!! IV, 85
!!!SCT: C0387
!!!YEM: Copyright 1995, estate of Helmut Schaffrath.
**kern
*ICvox
*Ivox
*M2/4
*k[f#c#g#d#]
*E:
{8cc#
8ff#
8dd#
8ff#
=1
8cc#
8b
4cc#
=2
8g#
8f#
8g#
8b
=3
8cc#
8b
4cc#}
=4
{4cc#
8cc#
16b
16g#
=5
8f#
8e
8f#
8g#
=6
8g#
4b
8d#
=7
2c#}
=8
{8cc#
8ff#
8dd#
8ff#
=9
8cc#
8b
8cc#
8ff#
=10
8g#
8f#
8g#
8b
=11
8cc#
8b
4cc#}
=12
{8b
8cc#
8b
8g#
=13
8f#
8e
8f#
8g#
=14
8g#
4b
8d#
=15
2c#}
=16
{8e
8e
8e
8f#
=17
8g#
8f#
4g#
=18
4.b
8d#
=19
2c#}
=20
{8g#
8f#
8e
8f#
=21
8g#
8f#
4g#
=22
4.b
8d#
=23
2c#}
=24
{8ff#
8dd#
4cc#
=25
8ff#
8dd#
4cc#
=26
8cc#
8ee
8g#
8b
=27
8cc#
8b
4cc#}
=28
{8b
8cc#
8b
8g#
=29
4f#
4g#
=30
8g#
4b
8d#
=31
2c#}
==
!!!AGN: Xiaodiao, Shidiao, Dui hua. Siji huahui
!! Stil: typischer Nordwest als West.
!!    Diese Sammlung enthaelt mit Stand 1987 wenigstens 32 Aufnahmen
!!    mit dem Titel "Dui hua"
!!    C0046, C0495, C0136
!!    Wenig Verzierungen. Vorspiel weggelassen.
!!!ONB: ESAC (Essen Associative Code) Database: CHINA
!!!AMT: simple duple
!!!AIN: vox
!!!EED: Helmut Schaffrath
!!!EEV: 1.0
*-
